app/images/logo/logo_yota.svg

<?xml version="1.0" encoding="UTF-8" standalone="no"?>
<svg width="33px" height="70px" viewBox="0 0 33 70" version="1.1" xmlns="http://www.w3.org/2000/svg" xmlns:xlink="http://www.w3.org/1999/xlink" xmlns:sketch="http://www.bohemiancoding.com/sketch/ns">
    <!-- Generator: Sketch 3.2.2 (9983) - http://www.bohemiancoding.com/sketch -->
    <title>yota</title>
    <desc>Created with Sketch.</desc>
    <defs></defs>
    <g id="III-Игры-Дизайнеров" stroke="none" stroke-width="1" fill="none" fill-rule="evenodd" sketch:type="MSPage">
        <g id="О-чемпионате-(дизайн)" sketch:type="MSArtboardGroup" transform="translate(-1034.000000, -1464.000000)" fill="#00B6E0">
            <g id="3_block" sketch:type="MSLayerGroup" transform="translate(-1.000000, 1280.000000)">
                <g id="logos" transform="translate(471.000000, 184.000000)" sketch:type="MSShapeGroup">
                    <g id="yota" transform="translate(564.000000, 0.000000)">
                        <path d="M10.7149453,56.9250538 C10.6886484,56.8758781 10.6339922,56.8437634 10.5757266,56.8437634 L8.90974219,56.8437634 C8.85714844,56.8437634 8.80919531,56.8681004 8.77954687,56.9105018 L5.32872656,61.7578136 L2.04651562,56.9127599 C2.01686719,56.8703584 1.96788281,56.8437634 1.91528906,56.8437634 L0.171703125,56.8437634 C0.1134375,56.8437634 0.06084375,56.8748746 0.033515625,56.9250538 C0.00515625,56.9724731 0.0085078125,57.0346953 0.0415078125,57.0816129 L4.36425,63.5128315 L4.36425,69.4339785 C4.36425,69.4751254 4.38023437,69.5130108 4.41117187,69.5418638 C4.43978906,69.5719713 4.47975,69.5862724 4.5230625,69.5862724 L6.05446875,69.5862724 C6.09546094,69.5862724 6.13542187,69.5707168 6.16403906,69.5418638 C6.19471875,69.5130108 6.21070312,69.4751254 6.21070312,69.4339785 L6.21070312,63.4960215 L10.7056641,57.0836201 C10.7376328,57.0346953 10.7422734,56.9749821 10.7149453,56.9250538" id="Fill-3"></path>
                        <path d="M16.5667734,61.6745161 C16.2017109,61.2216487 15.7384219,60.8573477 15.1825781,60.5808602 C14.6210625,60.3011111 13.9775625,60.1621147 13.2541406,60.1631183 C12.5180859,60.1631183 11.8709766,60.2963441 11.3141016,60.571828 C10.76625,60.8417921 10.3019297,61.2038351 9.9309375,61.6546953 C9.55994531,62.1055556 9.28614844,62.618638 9.10928906,63.1884229 C8.93139844,63.7569534 8.84348438,64.3400358 8.84348438,64.9396774 C8.84348438,65.5395699 8.93475,66.1291756 9.11857031,66.71 C9.30213281,67.291828 9.57953906,67.8136918 9.95027344,68.269319 C10.3199766,68.727957 10.7799141,69.0975269 11.3197734,69.3807885 L11.3950547,69.2475627 L11.3254453,69.3843011 C11.8859297,69.6575269 12.5314922,69.7905018 13.2541406,69.7905018 C13.9775625,69.7905018 14.6210625,69.6527599 15.1825781,69.3730108 C15.7384219,69.0975269 16.2017109,68.7309677 16.5667734,68.2781004 C16.9297734,67.8294982 17.2046016,67.3129032 17.3884219,66.7375986 C17.5732734,66.1648029 17.6635078,65.5772043 17.6635078,64.9773118 C17.6635078,64.3779211 17.5732734,63.7903226 17.3884219,63.2162724 C17.2046016,62.6409677 16.9297734,62.1256272 16.5667734,61.6745161 M10.6123359,64.9396774 C10.6123359,64.5176703 10.6680234,64.1046953 10.7799141,63.702509 C10.8907734,63.3005735 11.055,62.9440502 11.2751719,62.6286738 C11.4932813,62.3188172 11.7637266,62.0701792 12.0957891,61.8835125 C12.4221797,61.6991039 12.8032266,61.6057706 13.2541406,61.6057706 C13.7035078,61.6057706 14.0848125,61.6991039 14.4101719,61.8835125 C14.7422344,62.0721864 15.0183516,62.3188172 15.2429063,62.6296774 C15.4679766,62.9453047 15.6358125,63.3048387 15.745125,63.7105376 C15.8580469,64.1212545 15.9129609,64.537491 15.9129609,64.9597491 C15.9129609,65.3794982 15.8580469,65.7959857 15.745125,66.2056989 C15.6358125,66.6144086 15.4679766,66.9721864 15.2429063,67.2853047 C15.0170625,67.5984229 14.7399141,67.8515771 14.4088828,68.044767 C14.0848125,68.2336918 13.7035078,68.3292832 13.2541406,68.3292832 C12.8168906,68.3292832 12.4425469,68.2336918 12.1174453,68.044767 C11.7843516,67.8515771 11.5056563,67.6016846 11.2751719,67.2963441 C11.0560313,66.9764516 10.8907734,66.6144086 10.7799141,66.2056989 C10.6680234,65.7969892 10.6123359,65.3749821 10.6123359,64.9396774" id="Fill-4"></path>
                        <path d="M23.9226797,67.9037634 C23.8999922,67.8636201 23.8613203,67.8382796 23.8167187,67.8294982 C23.7721172,67.822724 23.7251953,67.8315054 23.6901328,67.8583513 C23.5199766,67.9880645 23.3340937,68.0992115 23.1262969,68.1948029 C22.9298437,68.2846237 22.7235937,68.3302867 22.5031641,68.3302867 C22.2633984,68.3292832 22.0855078,68.269319 21.9439687,68.1513978 C21.8310469,68.0670968 21.7384922,67.8194624 21.7408125,67.4007168 L21.7408125,61.8656989 L23.9982187,61.8656989 C24.0392109,61.8656989 24.0791719,61.8503943 24.1077891,61.8212903 C24.1384687,61.7924373 24.1544531,61.7548029 24.1544531,61.7146595 L24.1544531,60.5397133 C24.1544531,60.4998208 24.1397578,60.460681 24.1077891,60.4330824 C24.0791719,60.4019713 24.0392109,60.3866667 23.9982187,60.3866667 L21.7580859,60.3866667 L21.7580859,58.1143011 C21.7580859,58.0744086 21.7431328,58.0365233 21.7134844,58.0076703 C21.6838359,57.9788172 21.643875,57.9620072 21.6028828,57.9620072 L20.1271641,57.9620072 C20.0861719,57.9620072 20.0451797,57.9788172 20.0165625,58.0064158 C19.9879453,58.0352688 19.9709297,58.0744086 19.9709297,58.1143011 L19.9709297,60.3866667 L18.5570859,60.3866667 C18.5137734,60.3866667 18.4735547,60.4019713 18.4464844,60.4330824 C18.4155469,60.460681 18.3995625,60.4998208 18.3995625,60.5397133 L18.3995625,61.7146595 C18.3995625,61.7548029 18.4155469,61.7934409 18.4464844,61.8212903 C18.4748437,61.8524014 18.5137734,61.8656989 18.5570859,61.8656989 L19.9709297,61.8656989 L19.9709297,67.5494982 C19.9709297,68.2823656 20.1627422,68.8554122 20.5757578,69.2365233 C20.9820703,69.6118638 21.5582812,69.7917563 22.2737109,69.7905018 C22.8102187,69.7905018 23.2345781,69.7285305 23.5540078,69.5907885 C23.8530703,69.4628315 24.1531641,69.2887097 24.4568672,69.0709319 C24.5184844,69.0242652 24.5380781,68.9399642 24.4981172,68.8734767 L23.9226797,67.9037634" id="Fill-5"></path>
                        <path d="M31.8127734,60.9684946 C31.2105234,60.4253047 30.3692812,60.1621147 29.3215312,60.1643728 C28.5398437,60.1643728 27.8816484,60.2797849 27.3484922,60.5208961 C26.8189453,60.7640143 26.3615859,61.1383513 25.9769297,61.6413978 C25.9516641,61.6745161 25.9416094,61.7169176 25.9483125,61.75681 C25.9552734,61.797957 25.97925,61.8335842 26.0132812,61.8591756 L27.0483984,62.5664516 C27.1159453,62.6108602 27.2092734,62.5985663 27.2605781,62.5343369 C27.4900312,62.2543369 27.7684687,62.0287814 28.1018203,61.8591756 C28.4315625,61.6903226 28.7886328,61.6070251 29.1882422,61.604767 C29.7757969,61.6070251 30.1947422,61.75681 30.4845234,62.0445878 C30.7616719,62.3178136 30.9225469,62.7962724 30.9271875,63.5025448 C30.3556172,63.5083154 29.7667734,63.5592473 29.1642656,63.6503226 C28.5001406,63.7534409 27.8906719,63.9280645 27.3407578,64.1767025 C26.7862031,64.426595 26.3203359,64.7685663 25.9529531,65.1960932 C25.5762891,65.635914 25.389375,66.2001792 25.3901484,66.8607885 C25.3901484,67.3394982 25.4839922,67.7682796 25.6755469,68.1416129 C25.86375,68.5069176 26.1102187,68.8132616 26.4152109,69.0563799 C26.7186562,69.2997491 27.0690234,69.4829032 27.4624453,69.6075986 C27.8553516,69.7307885 28.2580547,69.7905018 28.6710703,69.7905018 C29.1869531,69.7905018 29.6639062,69.7049462 30.1021875,69.5273118 C30.4355391,69.3930824 30.7413047,69.210681 31.0176797,68.9876344 L31.0630547,69.4485305 C31.0710469,69.5250538 31.1383359,69.5862724 31.2195469,69.5862724 L32.5614609,69.5862724 C32.6024531,69.5862724 32.641125,69.5694624 32.6710312,69.5418638 C32.7006797,69.5130108 32.7164062,69.4741219 32.7164062,69.4329749 L32.7164062,63.6360215 C32.7164062,62.4209319 32.4289453,61.5202151 31.8127734,60.9684946 M30.9271875,64.9484588 L30.9271875,67.4807527 C30.6580312,67.7005376 30.3532969,67.8917204 30.0096328,68.0570609 C29.6548828,68.2271685 29.2691953,68.3114695 28.8435469,68.3114695 C28.6540547,68.3114695 28.4601797,68.2858781 28.2614062,68.2324373 C28.0708828,68.182509 27.8986641,68.0992115 27.7421719,67.9802867 C27.5872266,67.8626165 27.4580625,67.7150896 27.3508125,67.5316846 C27.2525859,67.3605735 27.20025,67.1453047 27.20025,66.8808602 C27.20025,66.4591039 27.3178125,66.1459857 27.5506172,65.901362 C27.7937344,65.6482079 28.1018203,65.4517563 28.4851875,65.317276 C28.8742266,65.177276 29.2988437,65.0839427 29.7608437,65.0375269 C30.1694766,64.9931183 30.5585156,64.9642652 30.9271875,64.9484588" id="Fill-6"></path>
                        <path d="M28.3619531,17.0892832 C31.1370469,14.3439785 32.8502109,10.5353763 32.8478906,6.37150538 L32.8478906,3.43301075 C32.8478906,1.58817204 31.3118438,0.0928315412 29.4164063,0.0928315412 C27.5173594,0.0928315412 25.9826016,1.58817204 25.9826016,3.43301075 L25.9826016,6.37150538 C25.9813125,8.74799283 25.0170938,10.8617921 23.463,12.4060573 C21.9029766,13.9458065 19.804125,14.8748746 17.4580313,14.876129 C15.1106484,14.8748746 13.014375,13.9458065 11.4520313,12.4060573 C9.9,10.8617921 8.93475,8.74799283 8.93475,6.37150538 L8.93475,3.43301075 C8.93475,1.58817204 7.39741406,0.0928315412 5.50197656,0.0928315412 C3.60653906,0.0928315412 2.06817188,1.58817204 2.06817188,3.43301075 L2.06817188,6.37150538 C2.06714063,10.5353763 3.78004688,14.3439785 6.55410938,17.0892832 C8.55473438,19.0771326 11.1382734,20.5263082 14.0244844,21.1773835 L14.0244844,28.2092473 C11.1382734,28.8600717 8.55473438,30.3105018 6.55410938,32.2993548 C3.78004688,35.0446595 2.06714063,38.8507527 2.06817188,43.0173835 L2.06817188,45.9548746 C2.06817188,47.7984588 3.60653906,49.2943011 5.50197656,49.2943011 C7.39741406,49.2943011 8.93475,47.7984588 8.93475,45.9548746 L8.93475,43.0173835 C8.93475,40.6406452 9.9,38.524086 11.4520313,36.9815771 C13.014375,35.4413262 15.1106484,34.5127599 17.4580313,34.5105018 C19.804125,34.5127599 21.9029766,35.4413262 23.463,36.9815771 C25.0170938,38.524086 25.9813125,40.6406452 25.9826016,43.0173835 L25.9826016,45.9548746 C25.9826016,47.7984588 27.5173594,49.2943011 29.4164063,49.2943011 C31.3118438,49.2943011 32.8478906,47.7984588 32.8478906,45.9548746 L32.8478906,43.0173835 C32.8502109,38.8507527 31.1370469,35.0446595 28.3619531,32.2993548 C26.3615859,30.3105018 23.7780469,28.8600717 20.8918359,28.2092473 L20.8918359,21.1773835 C23.7780469,20.5263082 26.3615859,19.0771326 28.3619531,17.0892832" id="Fill-7"></path>
                        <path d="M17.4580312,48.5900358 C20.7412734,48.5900358 23.4024141,46.0025448 23.4024141,42.8063799 C23.4024141,39.6102151 20.7412734,37.0204659 17.4580312,37.0204659 C14.1747891,37.0204659 11.5136484,39.6102151 11.5136484,42.8063799 C11.5136484,46.0025448 14.1747891,48.5900358 17.4580312,48.5900358" id="Fill-8"></path>
                    </g>
                </g>
            </g>
        </g>
    </g>
</svg>

<svg width="33" height="70" viewBox="0 0 33 70" xmlns="http://www.w3.org/2000/svg" xmlns:sketch="http://www.bohemiancoding.com/sketch/ns"><title>yota</title><desc>Created with Sketch.</desc><g sketch:type="MSShapeGroup" fill="#00B6E0"><path d="M10.715 56.925c-.026-.049-.081-.081-.139-.081h-1.666l-.13.067-3.451 4.847-3.282-4.845-.131-.069h-1.744c-.058 0-.111.031-.138.081-.028.047-.025.11.008.157l4.323 6.431v5.921l.047.108.112.044h1.531l.11-.044.047-.108v-5.938l4.495-6.412c.032-.049.037-.109.009-.159"/><path d="M16.567 61.675c-.365-.453-.828-.817-1.384-1.094-.562-.28-1.205-.419-1.928-.418-.736 0-1.383.133-1.94.409-.548.27-1.012.632-1.383 1.083-.371.451-.645.964-.822 1.534-.178.569-.266 1.152-.266 1.751 0 .6.091 1.189.275 1.77.184.582.461 1.104.832 1.559.37.459.83.828 1.369 1.111l.075-.133-.07.137c.56.273 1.206.406 1.929.406.723 0 1.367-.138 1.928-.417.556-.275 1.019-.642 1.384-1.095.363-.449.638-.965.822-1.541.185-.573.275-1.16.275-1.76 0-.599-.09-1.187-.275-1.761-.184-.575-.459-1.091-.822-1.542m-5.954 3.265c0-.422.056-.835.168-1.237.111-.402.275-.758.495-1.074.218-.31.489-.558.821-.745.326-.184.707-.278 1.158-.278.449 0 .831.093 1.156.278.332.189.608.435.833.746.225.316.393.675.502 1.081.113.411.168.827.168 1.249 0 .42-.055.836-.168 1.246-.109.409-.277.766-.502 1.08-.226.313-.503.566-.834.759-.324.189-.705.285-1.155.285-.437 0-.812-.096-1.137-.285-.333-.193-.612-.443-.842-.748-.219-.32-.384-.682-.495-1.091-.112-.409-.168-.831-.168-1.266"/><path d="M23.923 67.904l-.106-.074-.127.029c-.17.13-.356.241-.564.336-.196.09-.403.135-.623.135-.24-.001-.418-.061-.559-.179-.113-.084-.205-.332-.203-.751v-5.535h2.257l.11-.044.047-.107v-1.175l-.047-.107-.11-.046h-2.24v-2.272l-.045-.107-.111-.046h-1.476l-.111.044-.046.108v2.272h-1.414l-.111.046-.047.107v1.175l.047.107.111.044h1.414v5.684c0 .733.192 1.306.605 1.687.406.375.983.555 1.698.554.537 0 .961-.062 1.28-.2.299-.128.599-.302.903-.52.062-.047.081-.131.041-.197l-.575-.97"/><path d="M31.813 60.968c-.602-.543-1.443-.806-2.491-.804-.782 0-1.44.115-1.973.357-.53.243-.987.617-1.372 1.121l-.029.115.065.102 1.035.707c.068.044.161.032.212-.032.229-.28.508-.506.841-.675.33-.169.687-.252 1.086-.254.588.002 1.006.152 1.296.44.277.273.438.752.443 1.458-.572.006-1.16.057-1.763.148-.664.103-1.274.278-1.824.526-.555.25-1.02.592-1.388 1.019-.377.44-.564 1.004-.563 1.665 0 .479.094.907.285 1.281.188.365.435.672.74.915.303.243.654.427 1.047.551.393.123.796.183 1.209.183.516 0 .993-.086 1.431-.263.333-.134.639-.317.915-.54l.045.461c.008.077.075.138.156.138h1.342l.11-.044.045-.109v-5.797c0-1.215-.287-2.116-.904-2.668m-.886 3.98v2.532c-.269.22-.574.411-.918.576-.355.17-.74.254-1.166.254-.189 0-.383-.026-.582-.079-.191-.05-.363-.133-.519-.252-.155-.118-.284-.265-.391-.449-.098-.171-.151-.386-.151-.651 0-.422.118-.735.35-.979.243-.253.551-.45.935-.584.389-.14.814-.233 1.276-.28.409-.044.798-.073 1.166-.089"/><path d="M28.362 17.089c2.775-2.745 4.488-6.554 4.486-10.718v-2.938c0-1.845-1.536-3.34-3.431-3.34-1.899 0-3.434 1.495-3.434 3.34v2.938c-.001 2.376-.966 4.49-2.52 6.035-1.56 1.54-3.659 2.469-6.005 2.47-2.347-.001-4.444-.93-6.006-2.47-1.552-1.544-2.517-3.658-2.517-6.035v-2.938c0-1.845-1.537-3.34-3.433-3.34-1.895 0-3.434 1.495-3.434 3.34v2.938c-.001 4.164 1.712 7.972 4.486 10.718 2.001 1.988 4.584 3.437 7.47 4.088v7.032c-2.886.651-5.47 2.101-7.47 4.09-2.774 2.745-4.487 6.551-4.486 10.718v2.937c0 1.844 1.538 3.339 3.434 3.339 1.895 0 3.433-1.496 3.433-3.339v-2.937c0-2.377.965-4.493 2.517-6.036 1.562-1.54 3.659-2.469 6.006-2.471 2.346.002 4.445.931 6.005 2.471 1.554 1.543 2.518 3.659 2.52 6.036v2.937c0 1.844 1.535 3.339 3.434 3.339 1.895 0 3.431-1.496 3.431-3.339v-2.937c.002-4.167-1.711-7.973-4.486-10.718-2-1.989-4.584-3.439-7.47-4.09v-7.032c2.886-.651 5.47-2.1 7.47-4.088"/><path d="M17.458 48.59c3.283 0 5.944-2.587 5.944-5.784 0-3.196-2.661-5.786-5.944-5.786s-5.944 2.59-5.944 5.786c0 3.196 2.661 5.784 5.944 5.784"/></g></svg>
